svg/fluentui-system-icons/ic_fluent_balloon_24_regular.svg

<svg width="24" height="24" viewBox="0 0 24 24" fill="none" xmlns="http://www.w3.org/2000/svg">
<path d="M12.0177 5.6645C12.1126 5.26132 12.5165 5.01144 12.9196 5.10638C14.388 5.45214 15.5426 6.60459 15.8915 8.07167C15.9873 8.47464 15.7383 8.87901 15.3353 8.97484C14.9324 9.07068 14.528 8.82169 14.4322 8.41872C14.2146 7.50369 13.4916 6.78209 12.5758 6.56644C12.1726 6.4715 11.9228 6.06769 12.0177 5.6645ZM5 9C5 5.13401 8.13401 2 12 2C15.866 2 19 5.13401 19 9C19 11.025 18.3305 13.2357 17.1504 14.9556C16.1075 16.4755 14.6069 17.687 12.75 17.9479V18.25C12.75 18.6642 13.0858 19 13.5 19H16.75C17.9926 19 19 20.0074 19 21.25V22.25C19 22.6642 18.6642 23 18.25 23C17.8358 23 17.5 22.6642 17.5 22.25V21.25C17.5 20.8358 17.1642 20.5 16.75 20.5H13.5C12.2574 20.5 11.25 19.4926 11.25 18.25V17.9479C9.39312 17.687 7.89247 16.4755 6.84958 14.9556C5.66952 13.2357 5 11.025 5 9ZM12 3.5C8.96243 3.5 6.5 5.96243 6.5 9C6.5 10.7251 7.0795 12.6393 8.08644 14.1069C9.09356 15.5748 10.4527 16.5 12 16.5C13.5473 16.5 14.9064 15.5748 15.9136 14.1069C16.9205 12.6393 17.5 10.7251 17.5 9C17.5 5.96243 15.0376 3.5 12 3.5Z" fill="#212121"/>
</svg>

<svg xmlns="http://www.w3.org/2000/svg" width="24" height="24"><path d="M12.018 5.665a.75.75 0 0 1 .902-.559 4.005 4.005 0 0 1 2.972 2.966.75.75 0 0 1-1.46.347 2.505 2.505 0 0 0-1.856-1.853.75.75 0 0 1-.558-.901ZM5 9a7 7 0 0 1 14 0c0 2.025-.67 4.236-1.85 5.956-1.042 1.52-2.543 2.731-4.4 2.992v.302c0 .414.336.75.75.75h3.25A2.25 2.25 0 0 1 19 21.25v1a.75.75 0 0 1-1.5 0v-1a.75.75 0 0 0-.75-.75H13.5a2.25 2.25 0 0 1-2.25-2.25v-.302c-1.857-.261-3.358-1.473-4.4-2.992C5.67 13.236 5 11.025 5 9Zm7-5.5A5.5 5.5 0 0 0 6.5 9c0 1.725.58 3.64 1.586 5.107C9.094 15.575 10.453 16.5 12 16.5c1.547 0 2.906-.925 3.914-2.393C16.92 12.639 17.5 10.725 17.5 9A5.5 5.5 0 0 0 12 3.5Z"/></svg>
